!!!COM:	Rachmaninoff, Sergei
!!!CDT:	1873/04/01–1943/03/28
!!!OTL@RU:	Blazhen muzh
!!!OTL@EN:	Blessed is the Man
!!!OPS:	Op. 37
!!!ONM:	No. 3
**kern	**kern	**kern	**kern	**kern	**kern	**kern	**kern	**kern
*part9	*part8	*part7	*part6	*part5	*part4	*part3	*part2	*part1
*staff9	*staff8	*staff7	*staff6	*staff5	*staff4	*staff3	*staff2	*staff1
*I"Bass 2	*I"Bass 1	*I"Tenor 2	*I"Tenor 1	*I"Alto 2	*I"Alto 1	*I"Soprano 3	*I"Soprano 2	*I"Soprano 1
*I'B 2	*I'B 1	*I'T 2	*I'T 1	*I'A 2	*I'A 1	*I'S 3	*I'S 2	*I'S 1
*clefF4	*clefF4	*clefGv2	*clefGv2	*clefG2	*clefG2	*clefG2	*clefG2	*clefG2
*k[b-e-a-d-]	*k[b-e-a-d-]	*k[b-e-a-d-]	*k[b-e-a-d-]	*k[b-e-a-d-]	*k[b-e-a-d-]	*k[b-e-a-d-]	*k[b-e-a-d-]	*k[b-e-a-d-]
*A-:	*A-:	*A-:	*A-:	*A-:	*A-:	*A-:	*A-:	*A-:
*M4/4	*M4/4	*M4/4	*M4/4	*M4/4	*M4/4	*M4/4	*M4/4	*M4/4
=1	=1	=1	=1	=1	=1	=1	=1	=1
1r	1r	4r	4r	1r	1r	4r	4r	4r
.	.	4e-	4a-	.	.	4a-	4cc	4ee-
.	.	4e-	4a-	.	.	4a-	4cc	4ee-
.	.	4e-	4a-	.	.	4a-	4cc	4ee-
=2	=2	=2	=2	=2	=2	=2	=2	=2
2r	2r	8e-L	2f	2r	2r	2a-	8ccL	8ee-L
.	.	8d-	.	.	.	.	8dd-	8ff
.	.	8e-	.	.	.	.	8cc	8ee-
.	.	8fJ	.	.	.	.	8b-J	8dd-J
4r	4r	8e-L	4e-	4r	4r	4e-	8a-L	8ccL
.	.	8d-J	.	.	.	.	8g	8b-
8r	8r	8cL	4e-	8r	8r	4a-	8a-	8cc
8B-	8B-	8d-J	.	8b-	8b-	.	8b-J	8dd-J
=3	=3	=3	=3	=3	=3	=3	=3	=3
4c	4c	1c	1e-	4cc	4cc	1a-	1cc	1ee-
4c	4c	.	.	4cc	4cc	.	.	.
4c	4c	.	.	4cc	4cc	.	.	.
8c	8c	.	.	8cc	8cc	.	.	.
8B-	8B-	.	.	8b-	8b-	.	.	.
=4	=4	=4	=4	=4	=4	=4	=4	=4
*M6/4	*M6/4	*M6/4	*M6/4	*M6/4	*M6/4	*M6/4	*M6/4	*M6/4
4c	4c	1c	1e-	4cc	4cc	1a-	1cc	1ee-
4B-	4B-	.	.	4b-	4b-	.	.	.
8A-	8A-	.	.	8a-	8a-	.	.	.
8A-L	8A-L	.	.	8a-L	8a-L	.	.	.
8B-	8B-	.	.	8b-	8b-	.	.	.
8cJ	8cJ	.	.	8ccJ	8ccJ	.	.	.
2B-	2B-	4d-	4e-	2b-	2b-	4g	4b-	4ee-
.	.	8cL	4e-	.	.	8fL	8a-L	4ee-
.	.	8d-J	.	.	.	8gJ	8b-J	.
=5	=5	=5	=5	=5	=5	=5	=5	=5
!!pagebreak:original
*M4/4	*M4/4	*M4/4	*M4/4	*M4/4	*M4/4	*M4/4	*M4/4	*M4/4
4c	4c	4c	4e-	4cc	4cc	2.a-	4cc	[1ee-
4d-	4d-	4d-	4f	4dd-	4dd-	.	4dd-	.
2c	2c	4c	[2e-	2cc	2cc	.	4cc	.
.	.	8B-L	.	.	.	8gL	8b-L	.
.	.	8A-J	.	.	.	8fJ	8a-J	.
=6	=6	=6	=6	=6	=6	=6	=6	=6
8B-L	8B-L	8d-L	4e-]	8b-L	8b-L	4g	8dd-L	4ee-]
8cJ	8cJ	8cJ	.	8cc	8cc	.	8ccJ	.
8cL	8cL	4d-	4e-	8cc	8cc	4g	4dd-	4ee-
8B-J	8B-J	.	.	8b-J	8b-J	.	.	.
4.A-	4.A-	8cL	8e-L	4.a-	4.a-	4a-	4cc	8ee-L
.	.	8B-J	8d-J	.	.	.	.	8b-J
.	.	8cL	4e-	.	.	4a-	8a-L	8ccL
8B-	8B-	8d-J	.	8b-	8b-	.	8b-J	8dd-J
=7	=7	=7	=7	=7	=7	=7	=7	=7
4c	4c	2c	2e-	4cc	4cc	2a-	2cc	2ee-
8c	8c	.	.	8cc	8cc	.	.	.
8c	8c	.	.	8cc	8cc	.	.	.
2c	2c	4c	4e-	2cc	2cc	4a-	4cc	4ee-
.	.	4c	4e-	.	.	4g	4cc	4ee-
=8	=8	=8	=8	=8	=8	=8	=8	=8
*M6/4	*M6/4	*M6/4	*M6/4	*M6/4	*M6/4	*M6/4	*M6/4	*M6/4
8c	8c	2c	2e-	8cc	8cc	2f	8a-	2ee-
4B-	4B-	.	.	4b-	4b-	.	4b-	.
8A-	8A-	.	.	8a-	8a-	.	8cc	.
4A-	4A-	4c	4e-	4a-	4a-	4f	4cc	4ee-
8B-L	8B-L	8d-L	4e-	8b-L	8b-L	8gL	8b-L	4ee-
8cJ	8cJ	8e-J	.	8ccJ	8ccJ	8a-J	8ccJ	.
2B-	2B-	8d-L	8fL	2b-	2b-	4b-	4dd-	8ffL
.	.	8cJ	8e-J	.	.	.	.	8ee-J
.	.	4B-	4d-	.	.	4f	4b-	4dd-
=9	=9	=9	=9	=9	=9	=9	=9	=9
!!pagebreak:original
*M4/4	*M4/4	*M4/4	*M4/4	*M4/4	*M4/4	*M4/4	*M4/4	*M4/4
4c	4c	4e-	4e-	4cc	4cc	4g	4cc	4ee-
4d-	4d-	4e-	4f	4dd-	4dd-	4g	4dd-	4ff
2c	2c	4e-	4g	2cc	2cc	2cc	4ee-	4gg
.	.	8d-L	8fL	.	.	.	8dd-L	8ffL
.	.	8cJ	8e-J	.	.	.	8ccJ	8ee-J
=10	=10	=10	=10	=10	=10	=10	=10	=10
8B-L	8B-L	4d-	4f	8b-L	8b-L	4b-	4dd-	4ff
8cJ	8cJ	.	.	8ccJ	8ccJ	.	.	.
8cL	8cL	8e-L	4e-	8ccL	8ccL	8fL	8a-L	4ee-
8B-J	8B-J	8d-J	.	8b-J	8b-J	8gJ	8b-J	.
[2A-	[2A-	8cL	8e-L	[2a-	[2a-	[2a-	8ccL	8ee-L
.	.	8B-	8d-	.	.	.	8b-	8b-
.	.	8c	8e-	.	.	.	8a-	8cc
.	.	8d-J	8fJ	.	.	.	8b-J	8dd-J
=11	=11	=11	=11	=11	=11	=11	=11	=11
1A-_	1A-_	4e-	4e-	1a-_	1a-_	4a-]	4cc	4ee-
.	.	8e-L	2a-	.	.	2a-	8ccL	8ee-L
.	.	8d-	.	.	.	.	8dd-	8ff
.	.	8e-	.	.	.	.	8cc	8ee-
.	.	8fJ	.	.	.	.	8b-J	8dd-J
.	.	8e-L	4e-	.	.	4e-	8a-L	8ccL
.	.	8d-J	.	.	.	.	8gJ	8b-J
=12	=12	=12	=12	=12	=12	=12	=12	=12
4A-]	4A-]	8c	8e-	4a-]	4a-]	8a-	8a-	8cc
.	.	8B- 8d-	8e-	.	.	8a-	8b-	8dd-
4r	4r	[2.A- [2.c	[2.e-	4r	4r	[2.a-	[2.cc	[2.ee-
2r	2r	.	.	4e-	4e-	.	.	.
.	.	.	.	4e-	4e-	.	.	.
=13	=13	=13	=13	=13	=13	=13	=13	=13
1r	1r	1A-_ 1c_	1e-_	2e-	2e-	1a-_	1cc_	1ee-_
.	.	.	.	2e-	2e-	.	.	.
=14	=14	=14	=14	=14	=14	=14	=14	=14
!!pagebreak:original
2r	2r	4A-] 4c]	4e-]	[1e-	[1e-	4a-]	4cc]	4ee-]
.	.	4r	4r	.	.	4r	4r	4r
8r	8r	8r	8r	.	.	2r	2r	2r
8GG 8BB-	8E-	8B-	8B-	.	.	.	.	.
8GG 8BB-	8E-	8B-	8B-	.	.	.	.	.
8GG 8BB-	8E-	8B-	8B-	.	.	.	.	.
=15	=15	=15	=15	=15	=15	=15	=15	=15
8AA- 8C	8E-	8c	8c	1e-]	1e-]	1r	1r	1r
8AA- 8C	8E-	8c	8c	.	.	.	.	.
4AA- 4C	4E-	4c	4c	.	.	.	.	.
8AA- 8C	8E-	8c	8c	.	.	.	.	.
8GG 8BB-	8E-	8B-L	8B-L	.	.	.	.	.
8AA-L 8C	4E-	8c	8c	.	.	.	.	.
8GGJ 8BB-	.	8B-J	8B-J	.	.	.	.	.
=16	=16	=16	=16	=16	=16	=16	=16	=16
4.FF 4.AA-	4.F	4.A-	4.A-	4e-	4e-	1r	1r	1r
.	.	.	.	4e-	4e-	.	.	.
8GG 8BB-	8E-	8B-	8B-	.	.	.	.	.
4.AA- 4.C	4.E-	4.c	4.c	4f	4f	.	.	.
.	.	.	.	4f	4f	.	.	.
8AA- 8C	8E-	8c	8c	.	.	.	.	.
=17	=17	=17	=17	=17	=17	=17	=17	=17
!!pagebreak:original
8AA- 8C	8E-	8c	8c	[1e-	[1e-	1r	1r	1r
8AA- 8C	8E-	8c	8c	.	.	.	.	.
8AA- 8C	8E-	8c	8c	.	.	.	.	.
8GG 8BB-	8E-	8B-	8B-	.	.	.	.	.
4AA- 4C	2E-	4c	4c	.	.	.	.	.
4GG 4BB-	.	4B-	4B-	.	.	.	.	.
=18	=18	=18	=18	=18	=18	=18	=18	=18
8FF 8AA-	8F	8A-	8A-	1e-]	4e-]	1r	1r	1r
8FFL 8AA-	4F	8A-L	8A-L	.	.	.	.	.
8GG 8BB-	.	8B-	8B-	.	4f	.	.	.
8AA-J 8C	8E-	8cJ	8cJ	.	.	.	.	.
2EE- 2BB-	2E-	2B-	2B-	.	2g	.	.	.
=19	=19	=19	=19	=19	=19	=19	=19	=19
4F	4F	4c	4c	4a-	4a-	4cc	4cc	4cc
4D-	4D-	4A-	4d-	4f	4f	4dd-	4dd-	4dd-
4F	4F	4c	2c	4a-	4a-	2cc	2cc	2cc
4C	4C	4G	.	[4e-	4e-	.	.	.
=20	=20	=20	=20	=20	=20	=20	=20	=20
4E-	4E-	4B-	8B-L	4e-]	4g-X	8b-L	8b-L	8b-L
.	.	.	8cJ	.	.	8ccJ	8ccJ	8ccJ
4BB-	4BB-	4F	8cL	8e-L	4f	8ccL	8ccL	8ccL
.	.	.	8B-J	8d-J	.	8b-J	8b-J	8b-J
4D-	4D-	2A-	2A-	4f	4f	2a-	2a-	2a-
[4AA-	[4E-	.	.	[4c	[4c	.	.	.
=21	=21	=21	=21	=21	=21	=21	=21	=21
!!pagebreak:original
*M6/4	*M6/4	*M6/4	*M6/4	*M6/4	*M6/4	*M6/4	*M6/4	*M6/4
2.AA-]	2.E-]	4e-	4a-	2.c]	2.c]	4a-	4cc	4ee-
.	.	8e-L	4a-	.	.	4a-	4cc	8ee-L
.	.	8d-J	.	.	.	.	.	8ffJ
.	.	4e-	8a-L	.	.	[2a-	8ccL	8ee-L
.	.	.	8g	.	.	.	8a-	8cc
4r	4r	8fL	8f	4r	4r	.	8b-	8dd-
.	.	8e-J	8e-J	.	.	.	8ccJ	8ee-J
4r	4r	4d-	4f	4r	4r	4a-]	4dd-	4ff
8B-	8B-	8B-L	4e-	8b-	8b-	4g	8b-L	4ee-
8B-	8B-	8d-J	.	8b-	8b-	.	8dd-J	.
=22	=22	=22	=22	=22	=22	=22	=22	=22
*M4/4	*M4/4	*M4/4	*M4/4	*M4/4	*M4/4	*M4/4	*M4/4	*M4/4
8c	8c	2c	2e-	8cc	8cc	2a-	2cc	2ee-
8c	8c	.	.	8cc	8cc	.	.	.
8c	8c	.	.	8cc	8cc	.	.	.
8c	8c	.	.	8cc	8cc	.	.	.
8c	8c	4c	4e-	8cc	8cc	4g	4cc	4ee-
8c	8c	.	.	8cc	8cc	.	.	.
8c	8c	4c	4e-	8cc	8cc	4g	4cc	4ee-
8B-	8B-	.	.	8b-	8b-	.	.	.
=23	=23	=23	=23	=23	=23	=23	=23	=23
4c	4c	4c	2e-	4cc	4cc	4f	4a-	2ee-
4B-	4B-	4d-	.	4b-	4b-	4g	4b-	.
8A-	8A-	4c	4e-	8a-	8a-	4a-	4cc	4ee-
8A-L	8A-L	.	.	8a-L	8a-L	.	.	.
8B-	8B-	4c	4e-	8b-	8b-	4a-	4cc	4ee-
8cJ	8cJ	.	.	8ccJ	8ccJ	.	.	.
=24	=24	=24	=24	=24	=24	=24	=24	=24
!!pagebreak:original
[2B-	[2B-	8d-	8f	[2b-	[2b-	2b-	8dd-	8ff
.	.	4c	4e-	.	.	.	4cc	4ee-
.	.	8B-	8d-	.	.	.	8b-	8dd-
8B-]	8B-]	4c	4e-	8b-]	8b-]	4cc	4cc	4ee-
8r	8r	.	.	8r	8r	.	.	.
8A-	8A-	4d-	4f	8a-	8a-	4dd-	4dd-	4ff
8A-	8A-	.	.	8a-	8a-	.	.	.
=25	=25	=25	=25	=25	=25	=25	=25	=25
4B-	4B-	2e-	2g-X	4b-	4b-	2ee-	2ee-	2gg-X
8B-	8B-	.	.	8b-	8b-	.	.	.
8B-	8B-	.	.	8b-	8b-	.	.	.
8B-	8B-	4d-	4f	8b-	8b-	4dd-	4dd-	4ff
8B-	8B-	.	.	8b-	8b-	.	.	.
8c	8c	4c	4e-	8cc	8cc	4cc	4cc	4ee-
8c	8c	.	.	8cc	8cc	.	.	.
=26	=26	=26	=26	=26	=26	=26	=26	=26
4B-	4B-	4d-	4f	4b-	4b-	4dd-	4dd-	4ff
16B-LL	16B-LL	4.e-	4.g	16b-LL	16b-LL	4.ee-	4.ee-	4.gg
16cJ	16cJ	.	.	16ccJ	16ccJ	.	.	.
[8d-J	[8d-J	.	.	[8dd-J	[8dd-J	.	.	.
8d-]	8d-]	.	.	8dd-]	8dd-]	.	.	.
8d-	8d-	8f	8a-	8dd-	8dd-	8ff	8ff	8aa-
16d-LL	16d-LL	4e-	4g	16dd-LL	16dd-LL	4ee-	4ee-	4gg
16cJ	16cJ	.	.	16ccJ	16ccJ	.	.	.
8B-J	8B-J	.	.	8b-J	8b-J	.	.	.
=27	=27	=27	=27	=27	=27	=27	=27	=27
4d-	4d-	4f	2.f	4dd-	4dd-	4dd-	4ff	2ff
8c	8c	4e-	.	8cc	8cc	4cc	4ee-	.
8c	8c	.	.	8cc	8cc	.	.	.
2B-	2B-	4d-	.	2b-	2b-	2b-	4dd-	4dd-
.	.	8cL	8e-L	.	.	.	8ccL	8ee-L
.	.	8d-J	8fJ	.	.	.	8b-J	8dd-J
=28	=28	=28	=28	=28	=28	=28	=28	=28
!!pagebreak:original
4c	4c	4c	4e-	4cc	4cc	4a-	4cc	4ee-
4d-	4d-	4d-	4f	4dd-	4dd-	4a-	4dd-	4ff
2c	2c	4c	4e-	2cc	2cc	4a-	4cc	4ee-
.	.	8B-	8e-	.	.	8g	8b-	8ee-
.	.	8A-	8e-	.	.	8f	8a-	8ee-
=29	=29	=29	=29	=29	=29	=29	=29	=29
*M6/4	*M6/4	*M6/4	*M6/4	*M6/4	*M6/4	*M6/4	*M6/4	*M6/4
8B-L	8B-L	8B-L	4e-	8b-L	8b-L	4g	8b-L	4ee-
8cJ	8cJ	8cJ	.	8ccJ	8ccJ	.	8ccJ	.
8cL	8cL	4d-	4e-	8ccL	8ccL	4g	4dd-	4ee-
8B-J	8B-J	.	.	8b-J	8b-J	.	.	.
[2A-	[2A-	8c	8e-	[2a-	[2a-	8a-	8cc	8ee-
.	.	8B-	8d-	.	.	8a-	8b-	8b-
.	.	8cL	8e-L	.	.	[4a-	8a-L	8ccL
.	.	8d-J	8fJ	.	.	.	8b-J	8dd-J
8A-]	8A-]	4c	4e-	8a-]	8a-]	4a-]	4cc	4ee-
8r	8r	.	.	8r	8r	.	.	.
8B-	8B-	8d-	8e-	8b-	8b-	8g	8dd-	8ee-
8B-	8B-	8d-	8e-	8b-	8b-	8g	8dd-	8ee-
=30	=30	=30	=30	=30	=30	=30	=30	=30
*M4/4	*M4/4	*M4/4	*M4/4	*M4/4	*M4/4	*M4/4	*M4/4	*M4/4
8c	8c	2c	2e-	8cc	8cc	2a-	2cc	2ee-
8c	8c	.	.	8cc	8cc	.	.	.
8c	8c	.	.	8cc	8cc	.	.	.
8c	8c	.	.	8cc	8cc	.	.	.
4c	4c	4c	4e-	4cc	4cc	4g	4cc	4ee-
8c	8c	8c	8e-	8cc	8cc	8g	8cc	8ee-
8B-	8B-	8c	8e-	8b-	8b-	8g	8cc	8ee-
=31	=31	=31	=31	=31	=31	=31	=31	=31
!!pagebreak:original
4c	4c	4c	2e-	4cc	4cc	4f	4a-	2ee-
4B-	4B-	4d-	.	4b-	4b-	4g	4b-	.
8A-	8A-	8cL	4e-	8a-	8a-	4a-	4cc	8ee-L
8A-L	8A-L	8e-J	.	8a-L	8a-L	.	.	8ccJ
8B-	8B-	8d-L	4e-	8b-	8b-	8a-L	8b-L	8dd-L
8cJ	8cJ	8e-J	.	8ccJ	8ccJ	8ccJ	8ccJ	8ee-J
=32	=32	=32	=32	=32	=32	=32	=32	=32
2B-	2B-	8fL	4f	2b-	2b-	4b-	8dd-L	8ffL
.	.	8e-J	.	.	.	.	8ccJ	8ee-J
.	.	4d-	4f	.	.	4b-	4b-	4dd-
4r	4r	4c	4e-	4r	4r	4a-	4cc	4ee-
8A-	8A-	8d-	8f	8a-	8a-	8dd-L	8dd-	8ff
8A-	8A-	8d-	8f	8a-	8a-	8dd-J	8dd-	8ff
=33	=33	=33	=33	=33	=33	=33	=33	=33
4B-	4B-	2e-	2g-X	4b-	4b-	2ee-	2ee-	2gg-X
8B-	8B-	.	.	8b-	8b-	.	.	.
8B-	8B-	.	.	8b-	8b-	.	.	.
8B-	8B-	4d-	4f	8b-	8b-	4dd-	4dd-	4ff
8B-	8B-	.	.	8b-	8b-	.	.	.
8c	8c	4c	4e-	8cc	8cc	4cc	4cc	4ee-
8c	8c	.	.	8cc	8cc	.	.	.
=34	=34	=34	=34	=34	=34	=34	=34	=34
4B-	4B-	4d-	4f	4b-	4b-	4dd-	4dd-	4ff
16B-LL	16B-LL	4e-	4g	16b-LL	16b-LL	4ee-	4ee-	4gg
16cJ	16cJ	.	.	16ccJ	16ccJ	.	.	.
[8d-J	[8d-J	.	.	[8dd-J	[8dd-J	.	.	.
8d-]	8d-]	4.f	4.a-	8dd-]	8dd-]	4.ff	4.ff	4.aa-
8d-	8d-	.	.	8dd-	8dd-	.	.	.
16d-LL	16d-LL	.	.	16dd-LL	16dd-LL	.	.	.
16cJ	16cJ	.	.	16ccJ	16ccJ	.	.	.
8B-J	8B-J	8e-	8g	8b-J	8b-J	8ee-	8ee-	8gg
=35	=35	=35	=35	=35	=35	=35	=35	=35
!!pagebreak:original
4d-	4d-	4f	4f	4dd-	4dd-	4dd-	4ff	4ff
8c	8c	4e-	4f	8cc	8cc	4cc	4ee-	4ff
8c	8c	.	.	8cc	8cc	.	.	.
2B-	2B-	4d-	4f	2b-	2b-	2b-	4dd-	4ff
.	.	8cL	8e-L	.	.	.	8ccL	8ee-L
.	.	8d-J	8fJ	.	.	.	8b-J	8dd-J
=36	=36	=36	=36	=36	=36	=36	=36	=36
4c	4c	4e-	4e-	4cc	4cc	4g	4cc	4ee-
4d-	4d-	4e-	4f	4dd-	4dd-	4g	4dd-	4ff
2c	2c	4e-	4g	2cc	2cc	2cc	4ee-	4gg
.	.	8d-L	8fL	.	.	.	8dd-L	8ffL
.	.	8cJ	8e-J	.	.	.	8ccJ	8ee-J
=37	=37	=37	=37	=37	=37	=37	=37	=37
8B-L	8B-L	4d-	4f	8b-L	8b-L	4b-	4dd-	4ff
8cJ	8cJ	.	.	8ccJ	8ccJ	.	.	.
8cL	8cL	8e-L	4e-	8ccL	8ccL	8fL	8a-L	4ee-
8B-J	8B-J	8d-J	.	8b-J	8b-J	8gJ	8b-J	.
[2A-	[2A-	8cL	8e-L	[2a-	[2a-	[2a-	8ccL	8ee-L
.	.	8B-	8d-	.	.	.	8b-	8b-
.	.	8c	8e-	.	.	.	8a-	8cc
.	.	8d-J	8fJ	.	.	.	8b-J	8dd-J
=38	=38	=38	=38	=38	=38	=38	=38	=38
1A-_	1A-_	4e-	4e-	1a-_	1a-_	4a-]	4cc	4ee-
.	.	8e-L	2a-	.	.	2a-	8ccL	8ee-L
.	.	8d-	.	.	.	.	8dd-	8ff
.	.	8e-	.	.	.	.	8cc	8ee-
.	.	8fJ	.	.	.	.	8b-J	8dd-J
.	.	8e-L	4e-	.	.	4e-	8a-L	8ccL
.	.	8d-J	.	.	.	.	8gJ	8b-J
=39	=39	=39	=39	=39	=39	=39	=39	=39
!!pagebreak:original
4A-]	4A-]	8c 8e-	8e-	4a-]	4a-]	8a-	8a-L	8cc
.	.	8B- 8d-	8e-	.	.	8a-	8b-J	8dd-
4r	4r	[2.A- [2.c	[2.e-	4r	4r	[2.a-	[2.cc	[2.ee-
2r	2r	.	.	4e-	4e-	.	.	.
.	.	.	.	4e-	4e-	.	.	.
=40	=40	=40	=40	=40	=40	=40	=40	=40
1r	1r	2A-_ 2c_	2e-_	2e-	2e-	2a-_	2cc_	2ee-_
.	.	8A-] 8c]	8e-]	8e-L	8e-L	8a-]	8cc]	8ee-]
.	.	8r	8r	8fJ	8fJ	8r	8r	8r
.	.	4r	4r	8e-L	8e-	4r	4r	4r
.	.	.	.	8d-J	8r	.	.	.
=41	=41	=41	=41	=41	=41	=41	=41	=41
4F	4F	4c	4c	4c	4a-	4cc	4cc	4cc
4D-	4D-	4A-	4d-	4f	4f	4dd-	4dd-	4dd-
4F	4F	4c	2c	4f	4a-	2cc	2cc	2cc
4C	4C	4G	.	[4e-	4e-	.	.	.
=42	=42	=42	=42	=42	=42	=42	=42	=42
4E-	4E-	4B-	8B-L	4e-]	4g-X	8b-L	8b-L	8b-L
.	.	.	8cJ	.	.	8ccJ	8ccJ	8ccJ
4BB-	4BB-	4F	8cL	8e-L	4f	8ccL	8ccL	8ccL
.	.	.	8B-J	8d-J	.	8b-J	8b-J	8b-J
4D-	4D-	4.A-	4.A-	4d-	4f	[2a-	[2a-	[2a-
4E-	[4E-	.	.	8cL	8e-L	.	.	.
.	.	8B-	8B-	8d-J	8d-J	.	.	.
=43	=43	=43	=43	=43	=43	=43	=43	=43
1AA-;	1E-;]	1E-; 1A-	1c;	1c;	1e-;	1a-;]	1a-;]	1a-;]
==	==	==	==	==	==	==	==	==
*-	*-	*-	*-	*-	*-	*-	*-	*-
